!!!OTL: Andreas - Hofer - Lied Ach Himml, es ist verspielt,
!!!ARE: Europa, Mitteleuropa, Oesterreich, Steiermark
!!!SCT: D0077
!!!YEM: Copyright 1995, estate of Helmut Schaffrath.
**kern
*ICvox
*Ivox
*M2/2
*k[]
*C:
{2g
=1
4e
4e
4e
4e
=2
2e
4r}
{4g
=3
4.a
8g
4f
4e
=4
4e
4d
4r}
{4g
=5
4e
4e
4e
4e
=6
2e
4r}
{4g
=7
4.a
8g
4f
4e
=8
4e
4d
4r}
{8d
8e
=9
4g
8d
8e
4f
8d
8e
=10
2f
4r}
{8e
8f
=11
4g
8e
8f
4g
8e
8f
=12
2g
4r}
{8g
8f
=13
4e
4e
4cc
4a
=14
2g
4r}
{8g
8f
=15
4e
8e
8f
4g
8g
8f
=16
2e}
==
!!!AGN: historisches Lied
!! Inzipit = Variante zum Lied
!!!ONB: ESAC (Essen Associative Code) Database: DVA
!!!AMT: simple duple
!!!AIN: vox
!!!EED: Helmut Schaffrath
!!!EEV: 1.0
*-
